X:3
T: Chraebedeler  Bb (trad.)
T:Dirigenten-Notiz, Edi Gasser. 
C:Unterwalden (CH)
C:
%%partsbox
M:3/4
%Q:1/4=110
R:Naturjodel
L:1/4
K:Bb
[P:A]  "gemütlich"B,/C/ | D>CB,  | B>A G/F/ | E>DC | A3 | 
F>Fe | A2G/F/ | F>Fd | B2B,/C/ | D>CB, | 
B>A G/F/ | E>DC | A3 | F>F  !fermata!f | !fermata!e !fermata!c !fermata!A | (B3 | B)z ||
[P:B] 
"fröhlich, freizügiger" F/F/ | f>FF | ed c/A/ | B>FF | BAB | 
c>FF | ecA | B>AB | d2F/F/ | f>FF | edc/A/ | 
B>FF | BAB | c>FF | ecA | (B3 | B)z |]
W: Parts: A-B-A-B
W:
W: UJV-Naturjodelsammlung: Code-Nr: 00-02
W:http://www.naturjodler.ch/tradition-1.htm  (with AUDIO)
%April 20, 2018

